X:1
T:Title
%%score { ( 1 2 ) | ( 3 4 ) }
L:1/8
Q:1/4=100
M:4/4
K:C
V:1 treble nm="Grand Piano"
V:2 treble 
V:3 treble 
V:4 treble 
V:1
 z4 z2 A2 | G2 G2 A2 A2 | [EG]4 [Gc]3 d | c4 B2 z2 | z4 z2 B2 | A2 A2 B2 B2 | [^FA]4 [FB]3 [Fc] | %7
 [Fd]6 z2 |[M:6/8] .[Ge]6 | [EG]2 [CE] .[EG]3 | .[Ec-]3 c3 | d2 ^c .d3 | %12
 [Ge][Ec][Fd] [Ge][FB][Gc] | z3 z2 [Ad] | e3 d2 d | [Ec]6 |] %16
V:2
 G2 G2 A2 z E, | x8 | x8 | x8 | A2 A2 B2 z F, | x8 | x8 | x8 |[M:6/8] z CC C[Fd][Ec] | x6 | %10
 CCC ^FB[Fc] | x6 | x6 | dAd [Af].[Ae]>A, | x6 | x6 |] %16
V:3
 [G,CE]2 [G,CE]2 [CE]2 [CE]2 | [G,CE]2 [G,CE]2 [CE]2 [CE]2 | [C,C]4 [E,C]3 [F,A,F] | E4 D2 z2 | %4
 [A,DF]2 [A,DF]2 [DF]2 [DF]2 | [A,DF]2 [A,DF]2 [DF]2 [DF]2 | [D,C]4 [D,C]3 [D,A,] | [G,B,]6 z2 | %8
[M:6/8] [C,C]C,C, C,[C,C][C,C] | [C,C]2 [C,G,] .[C,C]3 | z3 .[D,A,]3[K:treble] | %11
 [G,B,G]2 [G,_B,G] .[G,=B,G]3 | [C,C][C,G,][C,G,] [C,C][D,G,][E,C] | %13
 [F,A,F][F,DF][F,A,F] [D,D][E,^C].[F,D] | [G,CG]3 [G,B,F]2 [G,F] | [C,G,]6 |] %16
V:4
 z4 A,4 | z4 A,4 | x8 | G,6 z2 | z4 B,4 | z4 B,4 | x8 | x8 |[M:6/8] x6 | x6 | %10
 [A,,A,][A,,A,][A,,A,] z[K:treble] ^F[D,A,] | x6 | x6 | x6 | x6 | x6 |] %16

